64x64/apps/syspeek.svg

<svg height="64" width="64" xmlns="http://www.w3.org/2000/svg"><path d="m10 56.2v2c0 1.55 1.226 2.8 2.75 2.8h38.5c1.524 0 2.75-1.25 2.75-2.8v-2c0 1.55-1.226 2.8-2.75 2.8h-38.5c-1.524 0-2.75-1.25-2.75-2.8z" opacity=".2"/><rect fill="#4f4f4f" height="56" rx="2.75" ry="2.8" transform="scale(-1 1)" width="44" x="-54" y="4"/><path d="m16 13v40h32v-40zm4 24h24v12h-24z" opacity=".2"/><g fill="#f4f4f7"><path d="m16 12v40h32v-40zm4 24h24v12h-24z"/><path d="m12.75 4c-1.524 0-2.75 1.25-2.75 2.8v1c0-1.55 1.226-2.8 2.75-2.8h38.5c1.524 0 2.75 1.25 2.75 2.8v-1c0-1.55-1.226-2.8-2.75-2.8z" opacity=".1"/></g></svg>

<svg xmlns="http://www.w3.org/2000/svg" width="64" height="64" version="1"><path style="opacity:.2" d="M10 56.2v2c0 1.55 1.226 2.8 2.75 2.8h38.5c1.524 0 2.75-1.25 2.75-2.8v-2c0 1.55-1.226 2.8-2.75 2.8h-38.5C11.226 59 10 57.75 10 56.2z"/><rect style="fill:#4f4f4f" width="44" height="56" x="-54" y="4" rx="2.75" ry="2.8" transform="scale(-1 1)"/><path style="opacity:.2" d="M16 13v40h32V13H16zm4 24h24v12H20V37z"/><path style="fill:#f4f4f7" d="M16 12v40h32V12H16zm4 24h24v12H20V36z"/><path style="opacity:.1;fill:#f4f4f7" d="M12.75 4C11.226 4 10 5.25 10 6.8v1C10 6.25 11.226 5 12.75 5h38.5C52.774 5 54 6.25 54 7.8v-1C54 5.25 52.774 4 51.25 4h-38.5z"/></svg>
